!!!COM: Bach, Johann Sebastian
!!!CDT: 1685/3//-1750/7/28/
!!!OTL@@DE: Wer nur den lieben Gott laesst walten
!!!AGN: 4-Part Chorale
!!!SCT: BH 146
!!!SCT: BWV 434
**harm	**root	**kern	**kern	**kern	**kern
!	!	!bass	!tenor	!alto	!soprno
*	*Iorgan	*Iorgan	*Iorgan	*Iorgan	*Iorgan
*	*	*clefF2	*clefF2	*clefG2	*clefG2
*k[f#c#g#d#]	*k[f#c#g#d#]	*k[f#c#g#d#]	*k[f#c#g#d#]	*k[f#c#g#d#]	*k[f#c#g#d#]
*c#:	*c#:	*c#:	*c#:	*c#:	*c#:
*M4/4	*M4/4	*M4/4	*M4/4	*M4/4	*M4/4
*met(c)	*met(c)	*met(c)	*met(c)	*met(c)	*met(c)
*MM60	*MM60	*MM60	*MM60	*MM60	*MM60
*>[A,A,B]	*>[A,A,B]	*>[A,A,B]	*>[A,A,B]	*>[A,A,B]	*>[A,A,B]
*>A	*>A	*>A	*>A	*>A	*>A
i	4AA	4c#	8c#	8e	4g#
.	.	.	8d#	8f#	.
=1	=1	=1	=1	=1	=1
ib	4AA	4E	8e	4g#	4cc#
.	.	.	8d#	.	.
V	4EE	4G#	8c#	4g#	4dd#
.	.	.	8B#	.	.
i	4AA	4C#	4c#	8g#	4ee
.	.	.	.	8a#	.
viiob	4GG#	4D#	4F#	4b#	4dd#
=2	=2	=2	=2	=2	=2
ib	4AA	4E	8G#	8cc#	4cc#
.	.	.	8g#	8b	.
iiob	4BB	4F#	8f#	4a	4dd#
.	.	.	8e	.	.
V	2EE	2G#	4.d#	2g#	4.b#
.	.	.	8c#	.	8a#
=3	=3	=3	=3	=3	=3
V;	4EE;	4G#;	4B#;	4d#;	4g#;
v	4EE	4G#	4d#	4g#	4b
i7	4AA	4c#	4e	4g#	4b
iio	4BB	8d#	8f#	4f#	4a
.	.	8c#	8e	.	.
=4	=4	=4	=4	=4	=4
V7b	8EE	8B#	8d#	8f#	4g#
V7c/IV	8AA	8B	8c#	8e#	.
IVb	8DD	8A#	8c#	8f#	4cc#
Fr	8DD#	8A	8d#	8f##	.
ic	8AA	8G#	8e	8g#	8cc#
Vb/V	8BB	8F##	[8d#	8a#	8dd#
V7	4EE	4G#	8d#]	4g#	4b#
.	.	.	16e	.	.
.	.	.	16f#	.	.
!!linebreak: 2
=5	=5	=5	=5	=5	=5
i;	2.AA;	2.C#;	2.e;	2.g#;	2.cc#;
=:|!	=:|!	=:|!	=:|!	=:|!	=:|!
*>B	*>B	*>B	*>B	*>B	*>B
V	4EE	4G#	4g#	4b#	4dd#
=6	=6	=6	=6	=6	=6
i	4AA	4c#	4g#	4cc#	4ee
-VII	4GG	4d#	4f#	4b	4ff#
III	4CC	8e	4e	4b	4gg#
.	.	8d#	.	.	.
i	4AA	8c#	4e	4cc#	4gg#
.	.	8B	.	.	.
=7	=7	=7	=7	=7	=7
iv7	4DD	8A	4e	4cc#	8ff#
.	.	8F#	.	.	16gg#
.	.	.	.	.	16aa
V7/III	4GG	4B	4d#	8b	4ff#
.	.	.	.	8a	.
III;	4CC;	4E;	4B;	4g#;	4ee;
I	4AA	4E#	4c#	4g#	4gg#
=8	=8	=8	=8	=8	=8
IV	8DD	8F#	8c#	8a#	4ff#
V7	8EE	8G#	8g#	8b#	.
vi7	8FF	8A	8g#	4cc#	4ee
viio/-VII	8FF#	8A#	8g	.	.
-VII	8GG	8B	4f#	8b	4dd#
viio7	8GG#	8B#	.	8a	.
i	4AA	4c#	8e	4g#	8cc#
.	.	.	8d#	.	8dd#
=9	=9	=9	=9	=9	=9
viio7/V	4DD#	4F##	4c#	4a#	8ee
.	.	.	.	.	8dd#
V7	4EE	4G#	4B#	8g#	4dd#
.	.	.	.	8f#	.
I;	4AA;	4C#;	4G#;	4e#;	4cc#;
==	==	==	==	==	==
*-	*-	*-	*-	*-	*-
!!chor2scor: -l 2 -s 0.6 -o %b.pmx
!!!YEC: Copyright 2003 by Craig Stuart Sapp
!!!license: GNU General Public License (http://www.gnu.org/copyleft/gpl.html)
!!!SMA: 371 Bach Chorales, edited by Ludwig Erk, C.F. Peters
!!!PDT: 1850, 1865
!!!ONB: Harmony and Root analysis done manually by Craig Sapp
